resources/haticons/SVG/crop_original.svg

<!-- Generated by IcoMoon.io -->
<svg version="1.1" xmlns="http://www.w3.org/2000/svg" width="24" height="24" viewBox="0 0 24 24">
<title>crop_original</title>
<path d="M13.969 12.281l3.516 4.734h-10.969l2.719-3.563 1.969 2.391zM18.984 18.984v-13.969h-13.969v13.969h13.969zM18.984 3q0.797 0 1.406 0.609t0.609 1.406v13.969q0 0.797-0.609 1.406t-1.406 0.609h-13.969q-0.797 0-1.406-0.609t-0.609-1.406v-13.969q0-0.797 0.609-1.406t1.406-0.609h13.969z"></path>
</svg>

<svg xmlns="http://www.w3.org/2000/svg" width="24" height="24"><path d="M13.969 12.281l3.516 4.734H6.516l2.719-3.563 1.969 2.391zm5.015 6.703V5.015H5.015v13.969h13.969zm0-15.984q.797 0 1.406.609t.609 1.406v13.969q0 .797-.609 1.406t-1.406.609H5.015q-.797 0-1.406-.609T3 18.984V5.015q0-.797.609-1.406T5.015 3h13.969z"/></svg>
